X:240
T:Fair Quaker of Deal
C:John Young, 1728
S:Colin Hume's website,  colinhume.com  - chords can also be printed below the stave.
Q:3/8=120
M:6/8
L:1/8
K:D
P:A
|: "D"FED A2d | "A"c3 "G"B3 | "D"ABA "A7"GAG | "D"F3 "A"E2E |\
"D"FED A2d | "A"c3 "Bm"d3 | "E7"ecf B2A | "A"A6 :|
P:B
|: "A7"cBA cBA | "D"d3 z3 | "G"BAG BAG | "Em"g3 z3 |\
"A7"cde ABc | "D"def "Em"efg | "D"fed "A7"eAc | "D"d6 :|

